resources/svg/hourglass-simple.svg

<svg xmlns="http://www.w3.org/2000/svg" viewBox="0 0 256 256" fill="currentColor"><path d="M196.68628,224H59.31372a15.99985,15.99985,0,0,1-11.3136-27.31348l68.68457-68.68506L48,59.31348A15.99991,15.99991,0,0,1,59.31372,32H196.68628a15.99976,15.99976,0,0,1,11.3136,27.31348l-68.68457,68.68506L208,196.68652A15.99983,15.99983,0,0,1,196.68628,224Zm.05029-15.94287h0Zm-137.41784-.062L196.6792,208l-68.681-68.68457ZM59.32074,48l68.68109,68.68457,68.67944-68.67969Zm137.44159.00488h0Z"/></svg>

<svg xmlns="http://www.w3.org/2000/svg" viewBox="0 0 256 256" fill="currentColor"><path d="M196.7,224H59.3A16,16,0,0,1,48,196.7L116.7,128,48,59.3A16,16,0,0,1,59.3,32H196.7A16,16,0,0,1,208,59.3L139.3,128,208,196.7A16,16,0,0,1,196.7,224Zm0-15.9ZM59.3,208H196.7L128,139.3Zm0-160L128,116.7,196.7,48Zm137.5,0Z"/></svg>
